assets/icons/supported_selectable_icons/logos/financial_institutions/627.svg

<svg xmlns="http://www.w3.org/2000/svg" width="512" height="512" fill="none"><g clip-path="url(#a)"><path fill="#fff" d="M0 0h512v512H0z"/><path fill="#64C832" d="M181.597 212.935c-8.756.019-17.324.69-25.874 1.095-10.331.489-20.682 1.167-30.999 2.318-7.355.821-14.733 1.663-22.132 2.18-4.012.281-8.003.854-12.297 1.295-.295-1.789-.295-3.578-.295-5.665 1.194.194 1.143-.702 1.323-1.436 3.145-12.776 7.902-24.965 13.966-36.602 5.414-10.389 11.824-20.163 19.406-29.151 2.499-2.963 5.077-5.83 8.034-8.546 1.806 1.016 2.915 2.318 3.717 4.064 9.899 21.553 23.042 41.029 38.101 59.272 2.172 2.631 4.372 5.237 6.534 7.875.739.902 1.833 1.788.516 3.301M275.187 86c-.104 1.543 1.23 1.173 2.09 1.678.514 2.26-.367 4.01-1.319 5.722-10.042 18.062-16.146 37.535-20.635 57.585-.481 2.149-.969 4.293-1.688 6.376-.239.692-.765 1.043-1.761.995-4.385-4.81-8.525-9.551-12.641-14.313-3.843-4.447-7.551-9.015-11.509-13.356-10.229-11.218-21.117-21.799-31.833-32.545-.382-.384-.712-.82-1.199-1.386 3.348-2.14 7.087-2.97 10.659-3.998 8.829-2.543 17.777-4.64 26.963-5.51.357-.034.675-.47.898-.984C247.024 86 260.95 86 275.187 86m-16.462 268.07c3.139 9.09 5.912 18.138 9.011 27.074 4.423 12.756 9.375 25.318 14.529 37.797 1.741 4.215 1.443 4.377-3.119 5.035-2.824.407-5.845-.185-8.389 1.609-9.185.271-18.473.271-28.073.271.116-1.562-1.116-1.252-1.873-1.303-13.246-.894-26.092-3.817-38.947-7.803-1.057-2.724 1.049-3.759 2.429-4.931 5.551-4.713 10.811-9.721 15.996-14.832 12.759-12.576 23.757-26.631 34.666-40.772.876-1.137 1.476-2.913 3.77-2.145"/><path fill="#146E37" d="M91.577 299.391c3.418-4.696 8.229-7.814 12.755-11.149 15.14-11.155 31.121-20.99 48.122-29.09 18.208-8.675 37.12-15.3 57.059-18.591 4.276-.705 8.779-.592 13.161.215 9.75 1.796 9.665 9.403 4.918 15.186-5.988 7.295-12.733 13.964-18.895 21.124-6.792 7.893-13.299 16.032-19.915 24.076-1.042 1.268-2.004 2.6-3.182 4.037-4.106 2.606-8.634 2.18-12.877 2.284-21.391.527-42.759.09-63.955-3.312-4.462-.716-8.86-1.783-13.298-2.633-1.414-.271-2.58-1.045-3.893-2.147m90.153-86.252c-3.728-5.32-8.221-9.743-12.1-14.664-14.526-18.427-27.393-37.853-36.617-59.79 9.799 1.45 19.3 4.429 28.753 7.58 23.552 7.851 45.812 18.363 66.371 32.349 7.998 5.442 15.659 11.31 22.266 18.438 2.635 2.843 4.858 5.927 5.999 9.713 1.545 5.127-1.276 9.454-6.613 9.702-6.262.29-12.495-.129-18.704-1.12-3.022-.482-6.14-.568-9.177-.68-7.249-.268-14.473-1.102-21.754-.854-6.039.205-12.054-1.029-18.424-.674m77.215 140.762c-5.068 6.614-10.113 12.984-15.208 19.314-12.238 15.208-25.55 29.373-40.678 41.77-.422.346-.782.769-1.273 1.362-1.763-.394-1.135-1.849-1.108-2.914.15-5.795-.229-11.578-.153-17.381.279-21.099 3.655-41.664 9.525-61.875 3.313-11.41 7.538-22.471 13.19-32.925 2.601-4.81 5.476-9.537 10.293-12.618 5.726-3.663 10.952-1.989 12.761 4.615 1.498 5.467 2.376 11.122 3.252 16.736 2.217 14.197 5.595 28.131 9.191 42.021.137.527.142 1.089.208 1.895m-7.221-195.407c2.108-8.803 4.151-17.457 6.57-26.005 4.398-15.548 10.33-30.476 18.958-44.471 5.113 7.933 8.713 16.653 12.124 25.436 4.965 12.786 8.764 25.928 11.591 39.361 3.208 15.241 4.301 30.644 3.57 46.161-.173 3.666-1.096 7.349-3.099 10.641-2.565 4.217-7.299 5.037-10.895 1.708-2.342-2.168-4.388-4.56-6.131-7.284-9.573-14.964-20.064-29.273-31.1-43.188-.542-.684-.991-1.44-1.588-2.359"/><path fill="#64C832" d="M91.362 299.433c5.4.726 10.77 1.852 16.182 2.704 8.549 1.347 17.124 2.561 25.771 3.096 10.663.659 21.339.928 32.021.698 6.491-.139 12.978-.437 19.776-.631-4.945 7.577-10.098 15.194-15.478 22.647-6.6 9.143-12.396 18.797-18.334 28.36a733 733 0 0 0-12.171 20.326c-.979 1.698-1.567 1.712-2.866.452-10.783-10.456-19.781-22.285-27.315-35.256-6.993-12.04-12.592-24.674-16.37-38.094-.38-1.35-.818-2.684-1.216-4.302"/><path fill="#146E37" d="M345.247 399.007c-6.16-2.787-11.368-7.016-16.564-11.175-6.254-5.008-12.204-10.406-17.708-16.261-13.464-14.324-24.9-30.052-32.912-48.087-2.181-4.909-3.438-10.076-2.594-15.587.712-4.643 4.676-7.401 9.314-6.286 5.663 1.362 10.344 4.779 15.331 7.484 11.881 6.443 24.09 12.149 36.803 17.381 1.876 1.574 2.692 3.487 3.169 5.592 2.845 12.567 4.911 25.244 6.046 38.096.671 7.591.462 15.166.577 22.751.031 2.054-.181 4.044-1.462 6.092m48.614-237.751c-2.841 9.833-7.406 18.732-12.197 27.486-5.377 9.824-11.562 19.161-18.742 27.782-8.934 10.727-18.067 21.255-30.706 27.943-1.595.844-3.276 1.311-4.964 1.684-5.188 1.143-8.569-1.641-8.683-7.015-.129-6.069 2.448-11.542 3.918-17.25 3.525-13.689 6.908-27.406 9.406-41.614 1.651-2.076 3.594-3.386 5.811-4.334 15.86-6.78 31.915-12.945 49.067-15.673 2.381-.378 4.804-.985 7.09.991m25.515 127.237c-9.01 4.254-18.51 6.365-28.086 8.126a168 168 0 0 1-37.046 2.667c-9.758-.382-19.44-1.581-28.869-4.235-3.726-1.049-7.111-2.897-9.865-5.732-3.485-3.588-2.931-9.066 1.22-11.932 4.927-3.402 10.605-5.253 16.003-7.669 11.542-5.164 22.716-11.034 33.916-17.361 2.203-.165 4.047.264 5.878 1.165 15.922 7.834 30.403 17.781 43.661 29.546 1.599 1.419 2.767 3.082 3.188 5.425"/><path fill="#64C832" d="M394.018 161.254c-9.034.272-17.602 2.675-26.124 5.18-10.799 3.174-21.198 7.445-31.499 11.954-1.308.572-2.659 1.044-4.226 1.586.606-4.99 1.583-9.984 2.258-15.019 1.198-8.93 2.45-17.864 3.219-26.835.503-5.869.923-11.75 1.403-17.625.293-3.583-.277-7.233 1.125-10.996 4.701 2.085 8.858 5.352 13.132 8.347 9.34 6.544 17.713 14.267 25.311 22.725 5.702 6.347 11.451 12.755 15.401 20.683m-48.709 237.963c-.21-3.7-.214-7.446-.186-11.191.153-20.678-3.116-40.907-7.977-61.186 7.782 2.576 15.519 5.572 23.377 8.204 12.063 4.04 24.366 7.273 36.986 10.344-2.359 4.688-5.494 8.699-8.408 12.824-4.858 6.874-10.469 13.191-16.428 19.074-8.284 8.177-17.357 15.506-27.364 21.931m74.227-110.641c-11.97-11.99-25.726-21.439-40.386-29.658-3.935-2.207-7.962-4.248-12.123-6.515 15.901-10.163 31.675-20.615 46.743-32.111 4.443-3.39 4.429-3.303 5.552 2.127 3.296 15.938 2.725 32.088 2.479 48.191-.091 5.947-1.331 11.876-2.265 17.966"/></g><defs><clipPath id="a"><path fill="#fff" d="M0 0h512v512H0z"/></clipPath></defs></svg>

<svg xmlns="http://www.w3.org/2000/svg" width="512" height="512" viewBox="0 0 512 512" fill="none">
<g clip-path="url(#clip0_20712_48002)">
<rect width="512" height="512" fill="white"/>
<path d="M181.597 212.935C172.841 212.954 164.273 213.625 155.723 214.03C145.392 214.519 135.041 215.197 124.724 216.348C117.369 217.169 109.991 218.011 102.592 218.528C98.5803 218.809 94.5894 219.382 90.2947 219.823C90 218.034 90 216.245 90 214.158C91.1941 214.352 91.1427 213.456 91.3233 212.722C94.4675 199.946 99.2246 187.757 105.289 176.12C110.703 165.731 117.113 155.957 124.695 146.969C127.194 144.006 129.772 141.139 132.729 138.423C134.535 139.439 135.644 140.741 136.446 142.487C146.345 164.04 159.488 183.516 174.547 201.759C176.719 204.39 178.919 206.996 181.081 209.634C181.82 210.536 182.914 211.422 181.597 212.935Z" fill="#64C832"/>
<path d="M275.187 86C275.083 87.5428 276.417 87.1733 277.277 87.6783C277.791 89.9382 276.91 91.6887 275.958 93.4003C265.916 111.462 259.812 130.935 255.323 150.985C254.842 153.134 254.354 155.278 253.635 157.361C253.396 158.053 252.87 158.404 251.874 158.356C247.489 153.546 243.349 148.805 239.233 144.043C235.39 139.596 231.682 135.028 227.724 130.687C217.495 119.469 206.607 108.888 195.891 98.142C195.509 97.7584 195.179 97.322 194.692 96.7563C198.04 94.6157 201.779 93.7865 205.351 92.7576C214.18 90.2149 223.128 88.1181 232.314 87.2474C232.671 87.2136 232.989 86.7771 233.212 86.2641C247.024 86 260.95 86 275.187 86Z" fill="#64C832"/>
<path d="M258.725 354.07C261.864 363.16 264.637 372.208 267.736 381.144C272.159 393.9 277.111 406.462 282.265 418.941C284.006 423.156 283.708 423.318 279.146 423.976C276.322 424.383 273.301 423.791 270.757 425.585C261.572 425.856 252.284 425.856 242.684 425.856C242.8 424.294 241.568 424.604 240.811 424.553C227.565 423.659 214.719 420.736 201.864 416.75C200.807 414.026 202.913 412.991 204.293 411.819C209.844 407.106 215.104 402.098 220.289 396.987C233.048 384.411 244.046 370.356 254.955 356.215C255.831 355.078 256.431 353.302 258.725 354.07Z" fill="#64C832"/>
<path d="M91.5767 299.391C94.9951 294.695 99.8056 291.577 104.332 288.242C119.472 277.087 135.453 267.252 152.454 259.152C170.662 250.477 189.574 243.852 209.513 240.561C213.789 239.856 218.292 239.969 222.674 240.776C232.424 242.572 232.339 250.179 227.592 255.962C221.604 263.257 214.859 269.926 208.697 277.086C201.905 284.979 195.398 293.118 188.782 301.162C187.74 302.43 186.778 303.762 185.6 305.199C181.494 307.805 176.966 307.379 172.723 307.483C151.332 308.01 129.964 307.573 108.768 304.171C104.306 303.455 99.9082 302.388 95.47 301.538C94.0564 301.267 92.89 300.493 91.5767 299.391Z" fill="#146E37"/>
<path d="M181.73 213.139C178.002 207.819 173.509 203.396 169.63 198.475C155.104 180.048 142.237 160.622 133.013 138.685C142.812 140.135 152.313 143.114 161.766 146.265C185.318 154.116 207.578 164.628 228.137 178.614C236.135 184.056 243.796 189.924 250.403 197.052C253.038 199.895 255.261 202.979 256.402 206.765C257.947 211.892 255.126 216.219 249.789 216.467C243.527 216.757 237.294 216.338 231.085 215.347C228.063 214.865 224.945 214.779 221.908 214.667C214.659 214.399 207.435 213.565 200.154 213.813C194.115 214.018 188.1 212.784 181.73 213.139Z" fill="#146E37"/>
<path d="M258.945 353.901C253.877 360.515 248.832 366.885 243.737 373.215C231.499 388.423 218.187 402.588 203.059 414.985C202.637 415.331 202.277 415.754 201.786 416.347C200.023 415.953 200.651 414.498 200.678 413.433C200.828 407.638 200.449 401.855 200.525 396.052C200.804 374.953 204.18 354.388 210.05 334.177C213.363 322.767 217.588 311.706 223.24 301.252C225.841 296.442 228.716 291.715 233.533 288.634C239.259 284.971 244.485 286.645 246.294 293.249C247.792 298.716 248.67 304.371 249.546 309.985C251.763 324.182 255.141 338.116 258.737 352.006C258.874 352.533 258.879 353.095 258.945 353.901Z" fill="#146E37"/>
<path d="M251.724 158.494C253.832 149.691 255.875 141.037 258.294 132.489C262.692 116.941 268.624 102.013 277.252 88.0178C282.365 95.9514 285.965 104.671 289.376 113.454C294.341 126.24 298.14 139.382 300.967 152.815C304.175 168.056 305.268 183.459 304.537 198.976C304.364 202.642 303.441 206.325 301.438 209.617C298.873 213.834 294.139 214.654 290.543 211.325C288.201 209.157 286.155 206.765 284.412 204.041C274.839 189.077 264.348 174.768 253.312 160.853C252.77 160.169 252.321 159.413 251.724 158.494Z" fill="#146E37"/>
<path d="M91.3623 299.433C96.7627 300.159 102.132 301.285 107.544 302.137C116.093 303.484 124.668 304.698 133.315 305.233C143.978 305.892 154.654 306.161 165.336 305.931C171.827 305.792 178.314 305.494 185.112 305.3C180.167 312.877 175.014 320.494 169.634 327.947C163.034 337.09 157.238 346.744 151.3 356.307C147.134 363.015 143.076 369.794 139.129 376.633C138.15 378.331 137.562 378.345 136.263 377.085C125.48 366.629 116.482 354.8 108.948 341.829C101.955 329.789 96.3561 317.155 92.5774 303.735C92.1972 302.385 91.7605 301.051 91.3623 299.433Z" fill="#64C832"/>
<path d="M345.247 399.007C339.087 396.22 333.879 391.991 328.683 387.832C322.429 382.824 316.479 377.426 310.975 371.571C297.511 357.247 286.075 341.519 278.063 323.484C275.882 318.575 274.625 313.408 275.469 307.897C276.181 303.254 280.145 300.496 284.783 301.611C290.446 302.973 295.127 306.39 300.114 309.095C311.995 315.538 324.204 321.244 336.917 326.476C338.793 328.05 339.609 329.963 340.086 332.068C342.931 344.635 344.997 357.312 346.132 370.164C346.803 377.755 346.594 385.33 346.709 392.915C346.74 394.969 346.528 396.959 345.247 399.007Z" fill="#146E37"/>
<path d="M393.861 161.256C391.02 171.089 386.455 179.988 381.664 188.742C376.287 198.566 370.102 207.903 362.922 216.524C353.988 227.251 344.855 237.779 332.216 244.467C330.621 245.311 328.94 245.778 327.252 246.151C322.064 247.294 318.683 244.51 318.569 239.136C318.44 233.067 321.017 227.594 322.487 221.886C326.012 208.197 329.395 194.48 331.893 180.272C333.544 178.196 335.487 176.886 337.704 175.938C353.564 169.158 369.619 162.993 386.771 160.265C389.152 159.887 391.575 159.28 393.861 161.256Z" fill="#146E37"/>
<path d="M419.376 288.493C410.366 292.747 400.866 294.858 391.29 296.619C379.049 298.87 366.678 299.772 354.244 299.286C344.486 298.904 334.804 297.705 325.375 295.051C321.649 294.002 318.264 292.154 315.51 289.319C312.025 285.731 312.579 280.253 316.73 277.387C321.657 273.985 327.335 272.134 332.733 269.718C344.275 264.554 355.449 258.684 366.649 252.357C368.852 252.192 370.696 252.621 372.527 253.522C388.449 261.356 402.93 271.303 416.188 283.068C417.787 284.487 418.955 286.15 419.376 288.493Z" fill="#146E37"/>
<path d="M394.018 161.254C384.984 161.526 376.416 163.929 367.894 166.434C357.095 169.608 346.696 173.879 336.395 178.388C335.087 178.96 333.736 179.432 332.169 179.974C332.775 174.984 333.752 169.99 334.427 164.955C335.625 156.025 336.877 147.091 337.646 138.12C338.149 132.251 338.569 126.37 339.049 120.495C339.342 116.912 338.772 113.262 340.174 109.499C344.875 111.584 349.032 114.851 353.306 117.846C362.646 124.39 371.019 132.113 378.617 140.571C384.319 146.918 390.068 153.326 394.018 161.254Z" fill="#64C832"/>
<path d="M345.309 399.217C345.099 395.517 345.095 391.771 345.123 388.026C345.276 367.348 342.007 347.119 337.146 326.84C344.928 329.416 352.665 332.412 360.523 335.044C372.586 339.084 384.889 342.317 397.509 345.388C395.15 350.076 392.015 354.087 389.101 358.212C384.243 365.086 378.632 371.403 372.673 377.286C364.389 385.463 355.316 392.792 345.309 399.217Z" fill="#64C832"/>
<path d="M419.536 288.576C407.566 276.586 393.81 267.137 379.15 258.918C375.215 256.711 371.188 254.67 367.027 252.403C382.928 242.24 398.702 231.788 413.77 220.292C418.213 216.902 418.199 216.989 419.322 222.419C422.618 238.357 422.047 254.507 421.801 270.61C421.71 276.557 420.47 282.486 419.536 288.576Z" fill="#64C832"/>
</g>
<defs>
<clipPath id="clip0_20712_48002">
<rect width="512" height="512" fill="white"/>
</clipPath>
</defs>
</svg>
